remix/Device/u-disk-line.svg

<svg viewBox="0 0 24 24" fill="currentColor" xmlns="http://www.w3.org/2000/svg"><path d="M19 12H5V20H19V12ZM5 10V2H19V10H20C20.5523 10 21 10.4477 21 11V21C21 21.5523 20.5523 22 20 22H4C3.44772 22 3 21.5523 3 21V11C3 10.4477 3.44772 10 4 10H5ZM7 10H17V4H7V10ZM9 6H11V8H9V6ZM13 6H15V8H13V6Z"/></svg>

<svg viewBox="0 0 24 24" xmlns="http://www.w3.org/2000/svg"><path fill="none" d="M0 0h24v24H0Z"/><path d="M19 12H5v8h14v-8ZM5 10V2h14v8h1v0c.55 0 1 .44 1 1v10 0c0 .55-.45 1-1 1H4v0c-.56 0-1-.45-1-1V11v0c0-.56.44-1 1-1h1Zm2 0h10V4H7v6Zm2-4h2v2H9V6Zm4 0h2v2h-2V6Z"/></svg>
